packages/foundations/assets/icons/functional/images/transportation/bus_24_inverted.svg

<svg width="24" height="24" viewBox="0 0 24 24" fill="none" xmlns="http://www.w3.org/2000/svg">
<g clip-path="url(#clip0_2214_6686)">
<path fill-rule="evenodd" clip-rule="evenodd" d="M16.4356 2.075C17.3767 2.075 17.8668 2.16963 18.3772 2.44259C18.8512 2.69612 19.2284 3.07324 19.4819 3.54729C19.7321 4.01514 19.8325 4.46593 19.8475 5.26272L19.8481 6.20465C19.9789 6.1225 20.1336 6.075 20.2995 6.075C20.7328 6.075 21.1747 6.42666 21.1495 6.925V9.925C21.1495 10.3944 20.7689 10.775 20.2995 10.775C20.1336 10.775 19.9789 10.7275 19.8481 10.6453L19.8495 17.3611C19.8495 18.3022 19.7548 18.7923 19.4819 19.3027C19.3094 19.6252 19.0798 19.9028 18.8014 20.1271L18.7995 20.925C18.7995 21.4773 18.3518 21.925 17.7995 21.925H17.1995C16.6472 21.925 16.1995 21.5424 16.1995 20.775H7.79949C7.79949 21.5277 7.35177 21.925 6.79949 21.925H6.19949C5.6472 21.925 5.19949 21.4773 5.19949 20.925L5.19758 20.1271C4.91916 19.9028 4.68953 19.6252 4.51708 19.3027C4.26687 18.8349 4.1665 18.3841 4.15151 17.5873L4.14992 10.646C4.01933 10.7277 3.86493 10.775 3.69949 10.775C3.26616 10.775 2.84949 10.4161 2.84949 9.925V6.925C2.84949 6.45555 3.23005 6.075 3.69949 6.075C3.86493 6.075 4.01933 6.12226 4.14992 6.20402L4.14949 5.48888C4.14949 4.54775 4.24413 4.05767 4.51708 3.54729C4.77061 3.07324 5.14773 2.69612 5.62178 2.44259C6.08963 2.19238 6.54042 2.09201 7.33721 2.07702L16.4356 2.075ZM6.87449 16.825C6.25317 16.825 5.74949 17.3287 5.74949 17.95C5.74949 18.5713 6.25317 19.075 6.87449 19.075C7.49581 19.075 7.99949 18.5713 7.99949 17.95C7.99949 17.3287 7.49581 16.825 6.87449 16.825ZM17.1245 16.825C16.5032 16.825 15.9995 17.3287 15.9995 17.95C15.9995 18.5713 16.5032 19.075 17.1245 19.075C17.7458 19.075 18.2495 18.5713 18.2495 17.95C18.2495 17.3287 17.7458 16.825 17.1245 16.825ZM18.1485 5.925H5.84849V14.555C8.17241 14.9101 10.2824 15.075 11.9995 15.075C13.7601 15.075 15.8103 14.9026 18.1477 14.5565L18.1485 5.925ZM8.99949 3.175C8.56664 3.175 8.24949 3.5453 8.24949 3.925C8.24949 4.30469 8.54521 4.675 8.99949 4.675H14.9995C15.4706 4.66815 15.7495 4.30469 15.7495 3.925C15.7495 3.5453 15.3886 3.175 14.9995 3.175H8.99949Z" fill="#1A1C1F"/>
</g>
<defs>
<clipPath id="clip0_2214_6686">
<rect width="24" height="24" fill="white"/>
</clipPath>
</defs>
</svg>

<svg xmlns="http://www.w3.org/2000/svg" width="24" height="24" fill="none"><g clip-path="url(#a)"><path fill="#1A1C1F" fill-rule="evenodd" d="M16.436 2.075c.94 0 1.43.095 1.941.368.474.253.851.63 1.105 1.104.25.468.35.919.366 1.716v.942a.85.85 0 0 1 .451-.13c.434 0 .876.352.85.85v3a.85.85 0 0 1-1.3.72v6.716c0 .941-.094 1.431-.367 1.942-.173.322-.402.6-.68.824l-.003.798a1 1 0 0 1-1 1h-.6c-.552 0-1-.383-1-1.15H7.8c0 .753-.447 1.15-1 1.15h-.6a1 1 0 0 1-1-1l-.001-.798a2.7 2.7 0 0 1-.68-.824c-.251-.468-.351-.919-.366-1.716l-.002-6.941a.85.85 0 0 1-.45.129.86.86 0 0 1-.85-.85v-3a.85.85 0 0 1 1.3-.721v-.715c0-.941.094-1.431.367-1.942.254-.474.63-.85 1.105-1.104.468-.25.918-.351 1.715-.366zm-9.562 14.75a1.125 1.125 0 1 0 0 2.25 1.125 1.125 0 0 0 0-2.25m10.25 0a1.125 1.125 0 1 0 0 2.25 1.125 1.125 0 0 0 0-2.25m1.024-10.9h-12.3v8.63c2.324.355 4.434.52 6.151.52q2.642 0 6.149-.518zM9 3.175a.76.76 0 0 0-.75.75c0 .38.296.75.75.75h6a.74.74 0 0 0 .75-.75c0-.38-.36-.75-.75-.75z" clip-rule="evenodd"/></g><defs><clipPath id="a"><path fill="#fff" d="M0 0h24v24H0z"/></clipPath></defs></svg>
